X:1
T:Title
%%score 1 { ( 2 5 6 ) | ( 3 4 ) }
L:1/8
Q:1/4=70
M:4/4
K:C
V:1 treble nm="Флейта, Flute" snm="Фл."
V:2 treble nm="Фортепиано" snm="Ф-но"
V:5 treble 
V:6 treble 
V:3 bass 
V:4 bass 
V:1
 e2 e2 f2 g2 | g2 f2 e2 d2 | c2 c2 d2 e2 | e3 d d4 | e2 e2 f2 g2 | g2 f2 e2 d2 | c2 c2 d2 e2 | %7
w: Beethoven * * *|||||||
 d3 c c4 | d2 d2 e2 c2 | d2 ef e2 c2 | d2 ef e2 d2 | c2 d2 G2 e2- | e2 e2 f2 g2 | g2 f2 e2 d2 | %14
w: |||||||
 c2 c2 d2 e2 | d3 c c4 |] %16
w: ||
V:2
 [Ec]2 c2 d2 G2 | e2 d2 [Ec]2 G2 | E2 E2 G2 c2 | [Ec]3 G G4 | [Ec]2 c2 d2 G2 | e2 d2 [Ec]2 G2 | %6
 E2 E2 G2 c2 | B2 z C c4 | G2 G2 G2 G2 | [DG]2 G2 [EG]2 G2 | [DG]2 G2 [E^G]2 G2 | z4 z2 c2- | %12
 c2 z2 z4 | [GA]2 A2 [EF]2 F2 | E2 E2 G2 c2 | B2 z C c4 |] %16
V:3
 z2 E2 F2 z2 | G2 F2 z2 D2 | C2 C2 D2 E2 | z2 z D [G,D]4 | z2 E2 F2 z2 | G2 F2 z2 D2 | %6
 C2 C2 D2 E2 | [G,D]4 [C,C]4 | D2 D2 E2 C2 | z2 EF z2 C2 | z2 EF z2 D2 | [A,C]2 [^F,D]2 G,2 E2- | %12
 E2 E2 z2 G2 | z2 F2 z2 D2 | [E,C]2 [E,C]2 [G,D]2 [CE]2 | [G,D]4 [C,E,G,C]4 |] %16
V:4
 [C,G,]8 | G,4 G,4 | [C,E,G,]8 | G,4 z4 | [C,G,]8 | G,4 G,4 | [C,E,G,]8 | x8 | G,8 | G,4 G,4 | %10
 G,4 ^G,4 | x8 | z4 _B,4 | A,4 F,4 | x8 | x8 |] %16
V:5
 x8 | x8 | x8 | x8 | x8 | x8 | x8 | z2 G2 z4 | x8 | x8 | x8 | A2 ^F2 G2 z2 | z2 c2 [F_B]2 B2 | x8 | %14
 x8 | z2 G2 z4 |] %16
V:6
 x8 | x8 | x8 | x8 | x8 | x8 | x8 | x8 | x8 | x8 | x8 | x8 | C4 z4 | x8 | x8 | x8 |] %16

